X: 42951
T: Willie And Owen's
R: reel
M: 4/4
K: Emixolydian
E2 GB edBd|AF ~F2 DEFD|~E2 GB edBd|AFDF EGFD|
E2 GB edBd|AF ~F2 DEFD|EFGB efga|abgf fe e2:|
|:be ~e2 baga|beeB defa|be ~e2 befe|feBc defa|
be ~e2 baga|beeB defa|~g3 e fgfe|1 dfBc defa:|2 dBAF FEED||

